web/workspace/public/assets/icons/window-new.svg

<svg height="30" viewBox="0 0 30 30" width="30" xmlns="http://www.w3.org/2000/svg"><path d="m2 2v26h26v-26zm24 24h-22v-14h22zm0-16h-22v-6h22zm-16-4h-4v2h4zm14 0h-12v2h12zm-10 18h2v-4h4v-2h-4v-4h-2v4h-4v2h4z"/></svg>

<svg xmlns="http://www.w3.org/2000/svg" width="30" height="30" viewBox="0 0 30 30"><path d="M2 2v26h26V2H2zm24 24H4V12h22v14zm0-16H4V4h22v6zM10 6H6v2h4V6zm14 0H12v2h12V6zM14 24h2v-4h4v-2h-4v-4h-2v4h-4v2h4v4z"/></svg>
